!!!!SEGMENT: pl-wn--mus-iii-62-775-1_zelenski-wladyslaw--trzy-piesni-do-slow-adama-asnyka-powrot-piosenki.krn
!!!cenid: 18xx:3768
!!!COM: Żeleński, Władysław
!!!COM-rismid: pe41024455
!!!CDT:
!!!CNT:
!!!OTL: Trzy pieśni do słów Adama Asnyka/Powrót piosenki
!!!PDT: 1902
!!!AGN:
!!!SMS-siglum: PL-Wn
!!!SMS-shelfmark: Mus.III.62.775/1
!!!SMS-shelfwork: W
!!!SMS-variant:
!!!SMS-altvar:
!!!NIFC-rismid:
!!!URL-scan: https://polona.pl/item/trzy-piesni-do-slow-adama-asnyka-1-powrot-piosenki,NjkyOTI5MDY/0/#info:metadata
!!!ONB-nifc:
!!!key: g
**kern	**dynam	**kern	**dynam	**kern	**text	**dynam
*part3	*part3	*part2	*part2	*part1	*part1	*part1
*staff3	*	*staff2	*	*staff1	*staff1	*
*I"Fortepian.	*	*I"Fortepian.	*	*I"Śpiew.	*	*
*I'pf	*	*I'pf	*	*I'V	*	*
*ICklav	*	*ICklav	*	*ICvox	*	*
*Ipiano	*	*Ipiano	*	*Ivox	*	*
*clefF4	*	*clefG2	*	*clefG2	*	*
*k[b-e-]	*	*k[b-e-]	*	*k[b-e-]	*	*
*g:	*	*g:	*	*g:	*	*
*M3/4	*	*M3/4	*	*M3/4	*	*
=1	=1	=1	=1	=1	=1	=1
!	!	!	!	!LO:TX:a:B:t=Andantino quasi Allegretto.	!	!
2.r	.	4r	.	2.r	.	.
!	!	!LO:TX:b:i:t=dolce	!	!	!	!
.	.	(>4dd\	.	.	.	.
.	.	8a\L	.	.	.	.
.	.	8cc\J	.	.	.	.
=2	=2	=2	=2	=2	=2	=2
!	!	!	!LO:HP:b	!	!	!
2.r	.	8b-/L	<	2.r	.	.
.	.	8g/J	.	.	.	.
.	.	4a/	.	.	.	.
.	.	8g/L	.	.	.	.
.	.	8e-/J	[[	.	.	.
=3	=3	=3	=3	=3	=3	=3
4r	.	[2.d/)	.	2.r	.	.
(8A\L	<	.	.	.	.	.
8c\	.	.	.	.	.	.
8B-\	.	.	.	.	.	.
8G\J	[[	.	.	.	.	.
=4	=4	=4	=4	=4	=4	=4
!	!	!	!LO:HP:b:t=dimin.	!	!	!
4A\)	.	2.d/_	>	2.r	.	.
4D\	.	.	.	.	.	.
4D\	.	.	.	.	.	.
=5	=5	=5	=5	=5	=5	=5
4D\	.	4d/]	.	2.r	.	.
4D\	.	4c/ 4d	.	.	.	.
4D\	.	4c/ 4d	.	.	.	.
=6	=6	=6	=6	=6	=6	=6
!	!	!	!LO:DY:b	!	!	!
4GG/ 4D	.	4B-/ 4d	pp	4r	.	.
!	!	!	!	!	!	!LO:DY:a
4GG/ 4D	.	4B-/ 4d	.	4g/	Piosn-	p
4GG/ 4D	.	4A/ 4d	.	4a/	-ka,	.
!!LO:LB:g=original	!	!	!	!	!	!
=7	=7	=7	=7	=7	=7	=7
*	*	*^	*	*	*	*
4GG/ 4D	.	4d/ 4G	4G/yy	.	8b-\	któ-	.
.	.	.	.	.	8a/	-rą	.
!	!	!	!	!	!	!	!LO:HP:a
4GG/ 4D	.	4d/ 4G	4G/yy	.	4g/	u-	<
4GG/ 4D	.	4g/	8e-\L	.	4b-\	-ko-	.
.	.	.	8d\J	.	.	.	.
=8	=8	=8	=8	=8	=8	=8	=8
4GG/ 4D	.	4a/	8c#X\L	.	4ee-\	-cha-	.
.	.	.	8A\J	.	.	.	.
4GG/ 4D	.	4d/	4B-\	.	2dd\	-na	[
4GG/ 4D	.	4d/	4B-\	.	.	.	.
*	*	*v	*v	*	*	*	*
=9	=9	=9	=9	=9	=9	=9
!	!	!	!	!LO:TX:a:i:t=poco legg.	!	!
4GG/ 4D	.	4A/ 4en	.	8dd\	Zwy-	.
.	.	.	.	8cc#X\	-kła	.
4GG/ 4D	.	4A/ 4a	.	4een\	by-	.
4GG/ 4D	.	4A/ 4e	.	8a/	-ła	.
.	.	.	.	8cc#X\	mi	.
=10	=10	=10	=10	=10	=10	=10
4GG/ 4D	.	4B-/ 4d	.	2dd\	nu-	.
4GG/ 4D	.	4B-/ 4d	.	.	.	.
4GG/ 4D	.	4B-/ 4g	.	4dd\	-cić,	.
=11	=11	=11	=11	=11	=11	=11
*	*	*^	*	*	*	*
!	!	!	!	!LO:HP:b	!	!	!
4GG/ 4D	.	4en/	8d\L	<	2.r	.	.
.	.	.	8c#X\J	.	.	.	.
4GG/ 4D	.	2a/	4e\	.	.	.	.
4GG/ 4D	.	.	8A\L	[	.	.	.
.	.	.	8c#\J	.	.	.	.
*	*	*v	*v	*	*	*	*
=12	=12	=12	=12	=12	=12	=12
!	!	!	!LO:HP:b	!	!	!
4GG/ 4D	.	4B-/ 4d	>	2.r	.	.
4GG/ 4D	.	4B-/ 4d	.	.	.	.
4GG/ 4D	.	4B-/ 4d	]]	.	.	.
=13	=13	=13	=13	=13	=13	=13
4GG/ 4D	.	4A/ 4d	.	4ryy	.	.
!	!	!	!	!LO:TX:a:i:t=espress.	!	!
!	!	!	!LO:HP:b	!	!	!
4GG/ 4D	.	4d/ 4en	<	4a/	Piosn-	.
4GG/ 4D	.	4c/ 4f#X	[[	4cc\	-ka	.
!!LO:LB:g=original	!	!	!	!	!	!
=14	=14	=14	=14	=14	=14	=14
4GG/ 4D	.	4B-/ 4g	.	8b-\	daw-	.
.	.	.	.	8a/	-no	.
!	!	!	!LO:DY:b	!	!	!
4GG/ 4E-	.	4B-/ 4g	p	4g/	za-	.
4GG/ 4D	.	4B-/ 4g	.	4b-\	-po-	.
=15	=15	=15	=15	=15	=15	=15
!	!	!	!	!	!	!LO:HP:a:t=poco cresc.
!	!	!	!LO:HP:b:t=poco cresc.	!	!	!
4BB-/ 4D	.	4B-/ 4f	<	8dd\	-mnia-	<
.	.	.	.	8cc\	-na,	.
4BB-/ 4F	.	4B-/ 4d	.	4b-\	Przysz-	.
4BB-/ 4F	.	4d/ 4f	.	4dd\	-ła	.
=16	=16	=16	=16	=16	=16	=16
*^	*	*	*	*	*	*
4G/	4GG/	.	4d/ 4b-	.	2ff\	sen	.
4G/	4GG/	.	4d/ 4b-	.	.	.	.
!	!	!	!	!	!	!	!LO:HP:a
!	!	!	!	!LO:HP:b	!	!	!
4B-/	8G\L	.	4e-/ 4g	>]	8ee-\	mój	>
.	8A\J	.	.	.	8b-\	za-	.
*v	*v	*	*	*	*	*	*
=17	=17	=17	=17	=17	=17	=17
*	*	*^	*	*	*	*
4B-\	.	4f/	4d/	.	4dd\	-kłó-	]
4B-\	.	4f/	4d/	.	4dd\	-cić.	.
!	!	!	!	!LO:HP:b	!	!	!
4A\ 4B-	.	8dd/L	4f\	<	4r	.	.
.	.	8cc/J	.	.	.	.	.
=18	=18	=18	=18	=18	=18	=18	=18
4G\ 4B-	.	2b-/	2f\	[	2.r	.	.
4G\ 4B-	.	.	.	.	.	.	.
4G\ 4B-	.	4g/	8e-\L	.	.	.	.
.	.	.	8B-\J	.	.	.	.
=19	=19	=19	=19	=19	=19	=19	=19
4D\ 4A	.	4f/	4d\	.	2.r	.	.
!	!	!	!	!LO:DY:b	!	!	!
4r	.	(>4dd/	2ryy	p	.	.	.
4r	.	8a/L	.	.	.	.	.
.	.	8cc/J	.	.	.	.	.
*	*	*v	*v	*	*	*	*
=20	=20	=20	=20	=20	=20	=20
!	!	!	!LO:HP:b	!	!	!
2.r	.	8b-/L	<	2.r	.	.
.	.	8g/J	.	.	.	.
.	.	4a/	.	.	.	.
.	.	8g/L	.	.	.	.
.	.	8e-/J	[[	.	.	.
!!LO:LB:g=original	!	!	!	!	!	!
!!LO:PB:g=original	!	!	!	!	!	!
=21	=21	=21	=21	=21	=21	=21
4r	.	[2.d/)	.	2.r	.	.
(8A\L	<	.	.	.	.	.
8c\	.	.	.	.	.	.
8B-\	.	.	.	.	.	.
8G\J	[[	.	.	.	.	.
=22	=22	=22	=22	=22	=22	=22
!	!	!	!LO:HP:b	!	!	!
4A\)	.	2d/]	>	2.r	.	.
4D\	.	.	.	.	.	.
(4D\	.	[4dd\	]]	.	.	.
=23	=23	=23	=23	=23	=23	=23
!	!	!	!	!LO:TX:a:i:t=espress.	!	!
!	!	!	!LO:HP:b:t=poco cresc.	!	!	!
4B-\) 4d	.	4dd\]	<	8dd\	Jej	.
.	.	.	.	8dd\	me-	.
4B-\ 4d	.	4f/ 4dd	.	4.dd\	-lo-	.
4B-\ 4d	.	4f#X/ 4dd	.	.	.	.
.	.	.	.	8cc\	-dya	.
=24	=24	=24	=24	=24	=24	=24
4B-\ 4d	.	4g\ 4dd	.	8b-\	sta-	.
!	!	!	!	!	!	!LO:HP:a
.	.	.	.	8a/	-ro-	<
4B-\ 4d	.	4g\ 4dd	.	8g/	-świec-	.
.	.	.	.	8a/	-ka	.
4B-\ 4d	.	4g-X\ 4dd	.	8b-\	Za-	.
.	.	.	.	8cc\	-po-	.
=25	=25	=25	=25	=25	=25	=25
*	*	*^	*	*	*	*
4B-\ 4d	.	8dd/L	4f\	.	4dd\	-mnia-	.
.	.	8cc/	.	.	.	.	.
4D\ 4d	.	8b-/	4f\	.	4.ff\	-na	.
.	.	8a/J	.	.	.	.	.
4E-\ 4B-	.	[4g/	8f\L	.	.	.	.
.	.	.	8e-\J	.	8b-\	od	[
=26	=26	=26	=26	=26	=26	=26	=26
4BB-\ 4B-	.	8g/L]	4d\	.	4dd\	daw-	.
.	.	8a/J	.	.	.	.	.
4BB-\ 4B-	.	4f/	4d\	.	4dd\	-na,	.
4BB-\ 4G	.	4b-/	4d\	.	4r	.	.
!!LO:LB:g=original	!	!	!	!	!	!	!
=27	=27	=27	=27	=27	=27	=27	=27
!	!	!	!	!LO:DY:b	!	!	!
4BB-\ 4A	.	8cc/L	4g-X\	pp	2.r	.	.
.	.	8ee-/J	.	.	.	.	.
4BB-\ 4B-	.	4dd/ 4f	4f/yy	.	.	.	.
4BB-\ 4B-	.	4dd/ 4f	4f/yy	.	.	.	.
*	*	*v	*v	*	*	*	*
=28	=28	=28	=28	=28	=28	=28
!	!	!LO:TX:b:i:t=espress.	!	!LO:TX:a:i:t=molto espress.	!	!
4C\ 4B-	.	4e-/ 4dd	.	4.ee-\	Mia-	.
4C\ 4B-	.	4e-/ 4g	.	.	.	.
.	.	.	.	8dd\	-ła	.
4C\ 4B-	.	4e-/ 4cc	.	8cc\	w so-	.
.	.	.	.	8b-\	-bie	.
=29	=29	=29	=29	=29	=29	=29
4C\ 4B-	.	4e-/ 4cc	.	8a/	u-	.
!	!	!	!	!	!	!LO:HP:a
.	.	.	.	8cc\	-śmiech	<
4C\ 4B-	.	4e-/ 4g	.	4b-\	dziec-	.
4C\ 4G	.	4e-/ 4b-	.	8g/	-ka	.
.	.	.	.	8g/	A	[[
=30	=30	=30	=30	=30	=30	=30
4C\ 4G-X	.	4e-/ 4b-	.	4b-\	w łzę	.
4C\ 4F	.	4e-/ 4a	.	4a/	by-	.
!	!	!	!	!	!	!LO:HP:a
!	!	!	!LO:HP:b	!	!	!
4FF/ 4F	.	4e-/ 4cc	>	8g/	-ła	>
.	.	.	.	8a/	o-	.
=31	=31	=31	=31	=31	=31	=31
*	*	*^	*	*	*	*
4BB-\ 4F	.	4g/ 4d	4d/yy	.	4g/	-pra-	.
4BB-\ 4F	.	4f/ 4d	4d/yy	.	4f/	-wna.	]
4BB-\ 4F	.	8b-/L	4d\	]	4r	.	.
.	.	8a/J	.	.	.	.	.
*	*	*v	*v	*	*	*	*
=32	=32	=32	=32	=32	=32	=32
!	!	!	!	!	!	!LO:HP:a
!	!	!	!	!	!	!LO:DY:a
!	!	!	!LO:HP:b	!	!	!
4BB-\ 4F	.	4d/ 4g	<	4.g/	Mia-	p <
4BB-\ 4F	.	4d/ 4g	.	.	.	.
.	.	.	.	8a/	-ła	.
4AA/ 4F	.	4d/ 4a	.	8b-\	w so-	.
.	.	.	.	8cc\	-bie	.
!!LO:LB:g=original	!	!	!	!	!	!
=33	=33	=33	=33	=33	=33	=33
4GG/ 4F	.	4d/ 4b-	.	8dd\	u-	.
.	.	.	.	8dd\	-śmiech	.
4GG/ 4F	.	4d/ 4b-	.	4cc\	dziec-	.
4GG/ 4En	.	4d/ 4b-	[[	8b-\	-ka	.
.	.	.	.	8b-\	A	[
=34	=34	=34	=34	=34	=34	=34
!	!	!LO:TX:b:i:t=espress.	!	!LO:TX:a:i:t=espress.	!	!
4AA/ 4En	.	4d/ 4a	.	4a/	w łzę	.
4AA\ 4G	.	4d/ 4a	.	4en/	by-	.
4AA\ 4G	.	4c#X/ 4a	.	8.g/	-ła	.
.	.	.	.	16f#X/	o-	.
=35	=35	=35	=35	=35	=35	=35
*	*	*^	*	*	*	*
!	!	!	!	!	!	!	!LO:HP:a
!	!	!	!	!LO:HP:b	!	!	!
4D\ 4G	.	4a/	8en\L	>	4en/	-pra-	>
.	.	.	8f#X\J	.	.	.	.
4D\ 4F#X	.	[2a/	4d\	.	4d/	-wna.	]
4D\ 4F#	.	.	4d\	.	4r	.	.
=36	=36	=36	=36	=36	=36	=36	=36
4D\ 4F#X	.	4a/]	4d\	]	2.r	.	.
!	!	!	!	!LO:DY:b	!	!	!
4r	.	(4dd\	2ryy	p	.	.	.
4r	.	8a\L	.	.	.	.	.
.	.	8cc\J	.	.	.	.	.
*	*	*v	*v	*	*	*	*
=37	=37	=37	=37	=37	=37	=37
!	!	!	!LO:HP:b	!	!	!
2.r	.	8b-/L	<	2.r	.	.
.	.	8g/J	.	.	.	.
.	.	4a/	.	.	.	.
.	.	8g/L	.	.	.	.
.	.	8e-/J	[[	.	.	.
=38	=38	=38	=38	=38	=38	=38
4r	.	[2.d/)	.	2.r	.	.
(8A\L	<	.	.	.	.	.
8c\	.	.	.	.	.	.
8B-\	.	.	.	.	.	.
8G\J	[	.	.	.	.	.
!!LO:LB:g=original	!	!	!	!	!	!
=39	=39	=39	=39	=39	=39	=39
!	!	!	!LO:HP:b:t=dim.	!	!	!
4A\)	.	2.d/_	>	2.r	.	.
4D\	.	.	.	.	.	.
4D\	.	.	.	.	.	.
=40	=40	=40	=40	=40	=40	=40
4D\	.	4d/]	.	4r	.	.
!	!	!	!	!LO:TX:a:i:t=dolce	!	!
!	!	!	!LO:DY:b	!	!	!
4D\	.	4c/ 4d	pp	4dd\	Zkąd	.
4D\	.	4B-/ 4d	.	4cc#X\	się	.
=41	=41	=41	=41	=41	=41	=41
4D\	.	4A/ 4d	.	8ccn\	wzię-	.
.	.	.	.	8a/	-ła	.
4GG/ 4D	.	4G/ 4d	.	4b-\	dziś	.
4GG/ 4D	.	4G/ 4d	.	4g/	na	.
=42	=42	=42	=42	=42	=42	=42
*	*	*^	*	*	*	*
4GG/ 4D	.	4a/	8c#X\L	.	4ee-\	no-	.
.	.	.	8A\J	.	.	.	.
4GG/ 4D	.	4d/ 4B-	4B-/yy	.	2dd\	-wo	.
4GG/ 4D	.	4d/ 4B-	4B-/yy	.	.	.	.
*	*	*v	*v	*	*	*	*
=43	=43	=43	=43	=43	=43	=43
4GG/ 4D	.	4A/ 4en	.	8dd\	W ser-	.
.	.	.	.	8cc#X\	-cu	.
4GG/ 4D	.	4A/ 4a	.	4een\	mo-	.
4GG/ 4D	.	4A/ 4e	.	8a/	-jem,	.
.	.	.	.	8cc#\	któż	.
=44	=44	=44	=44	=44	=44	=44
4GG/ 4D	.	4B-/ 4d	.	2dd\	zgad-	.
4GG/ 4D	.	4B-/ 4d	.	.	.	.
4GG/ 4D	.	4B-/ 4g	.	4dd\	-nie?	.
!!LO:LB:g=original	!	!	!	!	!	!
!!LO:PB:g=original	!	!	!	!	!	!
=45	=45	=45	=45	=45	=45	=45
*	*	*^	*	*	*	*
!	!	!	!	!LO:HP:b	!	!	!
4GG/ 4D	.	4en/	8d\L	<	2.r	.	.
.	.	.	8c#X\J	.	.	.	.
4GG/ 4D	.	2a/	4e-X\	.	.	.	.
4GG/ 4D	.	.	8A\L	[	.	.	.
.	.	.	8c#\J	.	.	.	.
*	*	*v	*v	*	*	*	*
=46	=46	=46	=46	=46	=46	=46
!	!	!	!LO:HP:b	!	!	!
4GG/ 4D	.	4B-/ 4d	>	2.r	.	.
4GG/ 4D	.	4B-/ 4d	]	.	.	.
4GG/ 4D	.	4B-/ 4d	.	.	.	.
=47	=47	=47	=47	=47	=47	=47
4GG/ 4D	.	4A/ 4d	.	4r	.	.
!	!	!	!	!LO:TX:a:i:t=espress.	!	!
4GG/ 4D	.	4d/ 4en	.	4a/	A-	.
4GG/ 4D	.	4c/ 4f#X	.	4cc\	-le	.
=48	=48	=48	=48	=48	=48	=48
4GG/ 4D	.	4B-/ 4g	.	8b-\	sły-	.
.	.	.	.	8a/	-szę	.
4GG/ 4E-	.	4B-/ 4g	.	4g/	ton	.
4GG/ 4D	.	4B-/ 4g	.	4b-\	i	.
=49	=49	=49	=49	=49	=49	=49
4BB-/ 4D	.	4B-/ 4f	.	8dd\	sło-	.
!	!	!	!	!	!	!LO:HP:a
.	.	.	.	8cc\	-wo,	<
!	!	!	!LO:HP:b	!	!	!
4BB-\ 4F	.	4B-/ 4d	<	4b-\	Co	.
4BB-\ 4F	.	4d/ 4f	.	4dd\	mi	[[
=50	=50	=50	=50	=50	=50	=50
*^	*	*	*	*	*	*
4G/	4GG/	.	4d/ 4b-	.	2ff\	dzwię-	.
4G/	4GG/	.	4d/ 4b-	[	.	.	.
4B-/	8G\L	.	4e-/ 4g	.	8ee-\	-czy	.
.	8A\J	.	.	.	8b-\	tak	.
*v	*v	*	*	*	*	*	*
!!LO:LB:g=original	!	!	!	!	!	!
=51	=51	=51	=51	=51	=51	=51
*	*	*^	*	*	*	*
!	!	!	!	!	!	!	!LO:HP:a
!	!	!	!	!LO:DY:b	!	!	!
!	!	!	!	!LO:HP:b	!	!	!
4B-\	.	4f/ 4d	4d/yy	p <	4dd\	ła-	>
4B-\	.	4f/ 4d	4d/yy	.	2dd\	-dnie.	]
4A\ 4B-	.	8dd/L	4f\	.	.	.	.
.	.	8cc/J	.	.	.	.	.
=52	=52	=52	=52	=52	=52	=52	=52
!	!	!	!	!LO:HP:b	!	!	!
4G\ 4B-	.	2b-/	2f\	[ >	2.r	.	.
4G\ 4B-	.	.	.	.	.	.	.
4G\ 4B-	.	4g/	(8e-\L	.	.	.	.
.	.	.	8B-\J	]	.	.	.
=53	=53	=53	=53	=53	=53	=53	=53
2D\ 2A	.	4f/	4d\)	.	2.r	.	.
.	.	(4dd\	2ryy	.	.	.	.
4r	.	8a\L	.	.	.	.	.
.	.	8cc\J	.	.	.	.	.
*	*	*v	*v	*	*	*	*
=54	=54	=54	=54	=54	=54	=54
!	!	!	!LO:HP:b	!	!	!
2.r	.	8b-/L	<	2.r	.	.
.	.	8g/J	.	.	.	.
.	.	4a/	.	.	.	.
.	.	8g/L	.	.	.	.
.	.	8e-/J	[[	.	.	.
=55	=55	=55	=55	=55	=55	=55
!	!	!	!LO:HP:b	!	!	!
4r	.	[2.d/)	<[	2.r	.	.
(8A\L	.	.	.	.	.	.
8c\	.	.	.	.	.	.
8B-\	.	.	.	.	.	.
8G\J	.	.	.	.	.	.
=56	=56	=56	=56	=56	=56	=56
!	!	!	!LO:DY:b	!	!	!
4A'\)	.	2.d/_	p	2.r	.	.
4D\	.	.	.	.	.	.
4D\	.	.	.	.	.	.
=57	=57	=57	=57	=57	=57	=57
!	!	!	!	!LO:TX:a:i:t=poco piu vivo	!	!LO:DY:a
4D\	.	4d/] 4en	.	8en/	Je-	p
.	.	.	.	8g/	-śli	.
!	!	!	!LO:DY:b	!	!	!
4r	.	4c/ 4d 4f#X	p	4f#X/	piosn-	.
4r	.	4c/ 4d 4f#	.	4a/	-ki	.
!!LO:LB:g=original	!	!	!	!	!	!
=58	=58	=58	=58	=58	=58	=58
!	!	!	!	!LO:TX:a:i:t=quasi mazurka	!	!
4GG/	.	4r	.	8g/	jak	.
.	.	.	.	8bn\	sko-	.
4r	.	4Bn/ 4d 4g	.	4dd\	-wron-	.
4r	.	4B/ 4d 4g	.	4een\	-ki	.
=59	=59	=59	=59	=59	=59	=59
4GG/	.	4r	.	8dd\	Od-	.
.	.	.	.	8cc#X\	-la-	.
4r	.	4A/ 4c#X 4en	.	4een\	-tu-	.
4r	.	4A/ 4c# 4e	.	8a/	-ją	.
.	.	.	.	8cc#\	z je-	.
=60	=60	=60	=60	=60	=60	=60
4GG/	.	4Bn/ 4d	.	4dd\	-sie-	.
4D\ 4Bn	.	8r	.	[2bn\	-nią,	.
!	!	!LO:TX:b:i:t=legg.	!	!	!	!
.	.	(<8d/L	.	.	.	.
4D\ 4B	.	8g/	.	.	.	.
.	.	8bn/J	.	.	.	.
=61	=61	=61	=61	=61	=61	=61
4GG/	.	2ddT\	.	4b\]	.	.
4D\ 4Bn	.	.	.	4bn\	A	.
4D\ 4B	.	8bn/L	.	4dd\	wra-	.
.	.	8g/J	.	.	.	.
=62	=62	=62	=62	=62	=62	=62
4AA/	.	4cc\)	.	8cc\	-ca-	.
.	.	.	.	8a/	-ją	.
4r	.	4A/ 4c 4en	.	4.een\	znów	.
4r	.	4A/ 4c 4e	.	.	.	.
.	.	.	.	8dd\	na	.
=63	=63	=63	=63	=63	=63	=63
4AA/	.	4r	.	8cc\	łą-	.
.	.	.	.	8bn\	-ki	.
4r	.	4c/ 4en 4a	.	4a/	Gdy	.
4r	.	4c/ 4e 4a	.	4g/	się	.
!!LO:LB:g=original	!	!	!	!	!	!
=64	=64	=64	=64	=64	=64	=64
4D\	.	4r	.	4bn\	z wios-	.
4r	.	4c/ 4en 4a	.	4.en/	-ną	.
4r	.	(<4c#X/ (<4g [>4a	.	.	.	.
.	.	.	.	8g/	zie-	.
=65	=65	=65	=65	=65	=65	=65
4DD/	.	4d/) 4f#X) 4a]	.	4bn\	-le-	.
4A\	.	8r	.	[2a/	-nią	.
.	.	(8d/L	.	.	.	.
4A\	.	8f#/	.	.	.	.
.	.	8bn/J	.	.	.	.
=66	=66	=66	=66	=66	=66	=66
*^	*	*	*	*	*	*
4D/	2.D\	.	2aT/	.	4a/]	.	.
!	!	!	!	!	!LO:TX:a:i:t=poco espress.	!	!
4A/	.	.	.	.	4a/	To	.
4A/	.	.	8f#X/L	.	4bn\	pio-	.
.	.	.	8d/J	.	.	.	.
*v	*v	*	*	*	*	*	*
=67	=67	=67	=67	=67	=67	=67
4AA/	.	4c/)	.	8cc\	-sen-	.
.	.	.	.	8bn\	-ki	.
4r	.	4c/ 4en 4a	.	4a/	tej	.
4r	.	4c/ 4e 4a	.	4b\	przy-	.
=68	=68	=68	=68	=68	=68	=68
4AA/	.	4r	.	8cc\	-by-	.
.	.	.	.	8bn\	-cie	.
!	!	!	!	!	!	!LO:HP:a
4r	.	4c/ 4en 4a	.	4a/	I	<
4r	.	4c/ 4e 4a	.	4cc\	jej	[[
=69	=69	=69	=69	=69	=69	=69
4C/	.	4r	.	2ff#X\	tchnie-	.
4r	.	4A/ 4en 4a	.	.	.	.
4r	.	4A/ 4e 4a	.	8een\	-nie	.
.	.	.	.	8a/	mi-	.
!!LO:LB:g=original	!	!	!	!	!	!
!!LO:PB:g=original	!	!	!	!	!	!
=70	=70	=70	=70	=70	=70	=70
4BBn/	.	4d/ 4f#X 4bn	.	4dd\	-ło-	.
!	!	!	!	!	!	!LO:HP:a
4F#X\ 4d	.	8r	.	[2dd\	-sne	>]
.	.	(<8f#/L	.	.	.	.
4F#\ 4d	.	8b/	.	.	.	.
.	.	8dd/J	.	.	.	.
=71	=71	=71	=71	=71	=71	=71
4BBn/	.	2ff#Xt\	.	4dd\]	.	.
!	!	!	!	!	!	!LO:DY:a
4F#X\ 4d	.	.	.	4bn\	Mo-	p
4F#\ 4d	.	8dd\L	.	4dd\	-że	.
.	.	8bn\J	.	.	.	.
=72	=72	=72	=72	=72	=72	=72
4AA/	.	4cc\)	.	8cc\	wró-	.
.	.	.	.	8a/	-cić	.
4r	.	4A/ 4c 4en	.	4.een\	no-	.
4r	.	4A/ 4c 4e	.	.	.	.
.	.	.	.	8dd\	-we	.
=73	=73	=73	=73	=73	=73	=73
4AA/	.	4r	.	8cc\	ży-	.
.	.	.	.	8bn\	-cie,	.
4r	.	4c/ 4en 4a	.	4a/	Prze-	.
4r	.	[4c/ [4e [4g	.	4en/	-bu-	.
=74	=74	=74	=74	=74	=74	=74
4D\	.	4c/] 4e] 4g]	.	4g/	-dze-	.
4r	.	4c/ 4d 4f#X	.	4.f#X/	-nie	.
4r	.	[4c/ [4f# [4a	.	.	.	.
.	.	.	.	8a/	i	.
=75	=75	=75	=75	=75	=75	=75
4GG/	.	4c/] 4f#] 4a]	.	4cc\	wios-	.
4D\ 4Bn	.	8r	.	[2bn\	-nę.	.
.	.	(8d/L	.	.	.	.
4D\ 4B	.	8g/	.	.	.	.
.	.	8bn/J)	.	.	.	.
!!LO:LB:g=original	!	!	!	!	!	!
=76	=76	=76	=76	=76	=76	=76
4GG/	.	(<2ddT\	.	4bn\]	.	.
4D\ 4Bn	.	.	.	4b\	Mo-	.
4D\ 4B	.	8bn/L	.	4dd\	-że	.
.	.	8g/J	.	.	.	.
=77	=77	=77	=77	=77	=77	=77
!	!	!	!	!	!	!LO:HP:a
4AA/	.	4cc\)	.	8cc\	wró-	<
.	.	.	.	8een\	-cić	.
4r	.	4A/ 4c 4en	.	4.ff#X\	no-	.
4r	.	4A/ 4c 4e	.	.	.	.
.	.	.	.	8ee\	-we	[[
=78	=78	=78	=78	=78	=78	=78
4AA/	.	4r	.	8dd\	ży-	.
.	.	.	.	8cc\	-cie,	.
4r;	.	4c;/ 4en 4a	.	4.aa;\	Prze-	.
4r	.	[4c/ [4e [4g	.	.	.	.
.	.	.	.	8gg\	-bu-	.
=79	=79	=79	=79	=79	=79	=79
4D\	.	4c/] 4e] 4g]	.	8ff#X\L	-dze-	.
.	.	.	.	8een\J	.	.
4r	.	4c/ 4d 4f#X	.	4.a/	-nie	.
4r	.	[4c/ [4f# [4a	.	.	.	.
.	.	.	.	8cc\	i	.
=80	=80	=80	=80	=80	=80	=80
4GG/	.	4c/] 4f#] 4a]	.	4bn\	wios-	.
4D\ 4Bn	.	8r	.	[2g/	-nę.	.
.	.	(<8d/L	.	.	.	.
4D\ 4B	.	8g/	.	.	.	.
.	.	8bn/J	.	.	.	.
=81	=81	=81	=81	=81	=81	=81
4GG/	.	2ddT\	.	4g/]	.	.
4D\ 4Bn	.	.	.	4r	.	.
4D\ 4B	.	8bn/L	.	4r	.	.
.	.	8g/J	.	.	.	.
=82	=82	=82	=82	=82	=82	=82
4GG/	.	2en/	.	2.r	.	.
4C#X\ 4A	.	.	.	.	.	.
4C#\ 4A	.	8a/L	.	.	.	.
.	.	8e/J	.	.	.	.
!!LO:LB:g=original	!	!	!	!	!	!
=83	=83	=83	=83	=83	=83	=83
4GG/	.	4.d/)	.	2.r	.	.
4D\ 4Bn	.	.	.	.	.	.
.	.	(>8bn/L	.	.	.	.
4D\ 4B	.	8g/	.	.	.	.
.	.	8d/J	.	.	.	.
=84	=84	=84	=84	=84	=84	=84
!	!	!LO:TX:b:i:t=poco riten.	!	!	!	!
4GG/	.	2e-X/	.	2.r	.	.
4C#X\ 4A	.	.	.	.	.	.
4C#\ 4A	.	8a/L	.	.	.	.
.	.	8e-/J	.	.	.	.
=85	=85	=85	=85	=85	=85	=85
4GG/	.	[2.d/)	.	2.r	.	.
4D\ 4B-X	.	.	.	.	.	.
4D\ 4B-	.	.	.	.	.	.
=86	=86	=86	=86	=86	=86	=86
!	!	!	!	!LO:TX:a:B:t=Tempo I.	!	!
4GG/	.	4d/]	.	2.r	.	.
!	!	!	!LO:DY:a	!	!	!
4r	.	(4dd\	p	.	.	.
!	!	!	!LO:HP:b	!	!	!
4r	.	8a\L	<	.	.	.
.	.	8cc\J	.	.	.	.
=87	=87	=87	=87	=87	=87	=87
2.r	.	8b-/L	.	2.r	.	.
.	.	8g/J	.	.	.	.
.	.	4a/	[	.	.	.
.	.	8g/L	.	.	.	.
.	.	8e-/J	.	.	.	.
=88	=88	=88	=88	=88	=88	=88
4r	.	[2.d/)	.	2.r	.	.
(8A\L	<	.	.	.	.	.
8c\	.	.	.	.	.	.
8B-\	.	.	.	.	.	.
8G\J	[[	.	.	.	.	.
=89	=89	=89	=89	=89	=89	=89
4A\)	.	2.d/_	.	2.r	.	.
4D\	.	.	.	.	.	.
!	!	!	!LO:HP:b	!	!	!
4D\	.	.	>	.	.	.
=90	=90	=90	=90	=90	=90	=90
!	!	!	!	!	!	!
4D\	.	4d/]	.	2.r	.	.
4D\	.	4c/ 4d	.	.	.	.
4D\	.	4c/ 4d	]]	.	.	.
!!LO:LB:g=original	!	!	!	!	!	!
=91	=91	=91	=91	=91	=91	=91
4GG/ 4D	.	4B-/ 4d	.	4r	.	.
!	!	!	!	!	!	!LO:DY:a
4GG/ 4D	.	4B-/ 4d	.	4g/	Je-	p
4GG/ 4D	.	4A/ 4d	.	4a/	-śli	.
=92	=92	=92	=92	=92	=92	=92
*	*	*^	*	*	*	*
4GG/ 4D	.	4d/ 4G	4G/yy	.	8b-\	piosn-	.
.	.	.	.	.	8a/	-ki	.
4GG/ 4D	.	4d/ 4G	4G/yy	.	4g/	są,	.
4GG/ 4D	.	4g/	8e-\L	.	8r	.	.
.	.	.	8d\J	.	8b-\	ach!	.
=93	=93	=93	=93	=93	=93	=93	=93
4GG/ 4D	.	4a/	8c#X\L	.	4ee-\	tys-	.
.	.	.	8A\J	.	.	.	.
4GG/ 4D	.	4d\ 4B-	4B-\yy	.	2dd\	-ko	.
4GG/ 4D	.	4d/ 4B-	4B-/yy	.	.	.	.
*	*	*v	*v	*	*	*	*
=94	=94	=94	=94	=94	=94	=94
4GG/ 4D	.	4A/ 4en	.	8dd\	Wła-	.
.	.	.	.	8cc#X\	-snym	.
4GG/ 4D	.	4A/ 4a	.	4een\	cie-	.
4GG/ 4D	.	4A/ 4e	.	8a/	-niem	.
.	.	.	.	8cc#\	czło-	.
=95	=95	=95	=95	=95	=95	=95
4GG/ 4D	.	4B-/ 4d	.	2dd\	-wie-	.
4GG/ 4D	.	4B-/ 4d	.	.	.	.
4GG/ 4D	.	4B-/ 4g	.	4dd\	-ka,	.
=96	=96	=96	=96	=96	=96	=96
*	*	*^	*	*	*	*
!	!	!	!	!	!	!	!LO:HP:b
4GG/ 4D	.	4en/	(8d\L	<	2.r	.	<[
.	.	.	8c#X\J	.	.	.	.
4GG/ 4D	.	2a/	4e\	.	.	.	.
4GG/ 4D	.	.	8A\L	.	.	.	.
.	.	.	8c#\J)	[	.	.	.
*	*	*v	*v	*	*	*	*
!!LO:LB:g=original	!	!	!	!	!	!
!!LO:PB:g=original	!	!	!	!	!	!
=97	=97	=97	=97	=97	=97	=97
!	!	!	!LO:HP:a	!	!	!
4GG/ 4D	.	4B-/ 4d	>	2.r	.	.
4GG/ 4D	.	4B-/ 4d	.	.	.	.
4GG/ 4D	.	4B-/ 4d	]	.	.	.
=98	=98	=98	=98	=98	=98	=98
4GG/ 4D	.	4A/ 4d	.	4r	.	.
!	!	!	!	!LO:TX:a:i:t=espress.	!	!
4GG/ 4D	.	4d/ 4en	.	4a/	Co	.
4GG/ 4D	.	4c/ 4f#X	.	4cc\	tak	.
=99	=99	=99	=99	=99	=99	=99
4GG/ 4D	.	4B-/ 4g	.	8b-\	du-	.
.	.	.	.	8a/	-ży	.
4GG/ 4E-	.	4B-/ 4g	.	4g/	ran-	.
4GG/ 4D	.	4B-/ 4g	.	4b-\	-ną	.
=100	=100	=100	=100	=100	=100	=100
4BB-/ 4D	.	4B-/ 4f	.	8dd\	chwil-	.
.	.	.	.	8cc\	-ką.	.
!	!	!	!	!	!	!LO:HP:a
!	!	!	!LO:HP:b	!	!	!
4BB-\ 4F	.	4B-/ 4d	<	4b-\	Z bie-	<
4BB-\ 4F	.	4d/ 4f	.	4dd\	-giem	[[
=101	=101	=101	=101	=101	=101	=101
*^	*	*	*	*	*	*
4G/	4GG/	.	4d/ 4b-	[	2ff\	słoń-	.
4G/	4GG/	.	4d/ 4b-	.	.	.	.
!	!	!	!	!	!	!	!LO:HP:a
!	!	!	!	!LO:HP:b	!	!	!
4B-/	8G\L	.	4e-/ 4g	>	8ee-\	-ca	>
.	8A\J	.	.	.	8b-\	u-	]]
=102	=102	=102	=102	=102	=102	=102	=102
2ryy	4B-\	.	4d/ 4f	]	4dd\	-cie-	.
.	4B-\	.	4d/ 4f	.	[2dd\	-ka	.
!	!	!	!	!LO:HP:b	!	!	!
4B-/	8B-\L	.	4d/ 4f	<	.	.	.
.	8A\J	.	.	.	.	.	.
*v	*v	*	*	*	*	*	*
=103	=103	=103	=103	=103	=103	=103
*	*	*^	*	*	*	*
4G\ 4B-	.	2b-/	2f\	[[	4dd\]	.	.
4G\ 4B-	.	.	.	.	4r	.	.
!	!	!	!	!LO:HP:b	!	!	!
4G\ 4B-	.	4g/	8e-\L	>	4r	.	.
.	.	.	8B-\J	]]	.	.	.
!!LO:LB:g=original	!	!	!	!	!	!	!
=104	=104	=104	=104	=104	=104	=104	=104
4D\ 4A	.	4f/ 4d	4d/yy	.	2.r	.	.
4D\ 4A	.	4f/ 4d	4d/yy	.	.	.	.
4C\ 4A	.	4f/	4e-\	.	.	.	.
*	*	*v	*v	*	*	*	*
=105	=105	=105	=105	=105	=105	=105
!	!	!	!	!	!	!LO:HP:a:t=poco cresc.
4BB-\ 4B-	.	4d/ 4f	.	8dd\	A	<
.	.	.	.	8dd\	do	.
4B-\ 4d	.	4f/ 4dd	.	4.dd\	daw-	.
4B-\ 4d	.	4f#X/ 4dd	.	.	.	.
.	.	.	.	8cc\	-nej	.
=106	=106	=106	=106	=106	=106	=106
!	!	!	!	!	!	!LO:HP:a
!	!	!	!LO:HP:b	!	!	!
4B-\ 4d	.	4g\ 4dd	<	8b-\	wra-	<
.	.	.	.	8a/	-ca	.
4B-\ 4d	.	4g\ 4dd	.	8g/	mia-	.
.	.	.	.	8a/	-ry	.
4B-\ 4d	.	4g\ 4dd	[[	8b-\	Kie-	.
.	.	.	.	8cc\	-dy	[[
=107	=107	=107	=107	=107	=107	=107
4E-\ 4e-	.	4g\ 4dd	.	4dd\	słoń-	.
4E-\ 4e-	.	4g\ 4dd	.	4.g/	-ce	.
4E-\ 4B-	.	4g\ 4dd	.	.	.	.
.	.	.	.	8b-\	już	.
=108	=108	=108	=108	=108	=108	=108
*	*	*^	*	*	*	*
!	!	!	!	!	!	!	!LO:HP:a
!	!	!	!	!LO:HP:b	!	!	!
4F\ 4A	.	4dd/	[4f\	>	4dd\	nis-	>
4F\ 4A	.	[2cc/	8f\L]	.	[2cc\	-ko,	]
.	.	.	8c\	]	.	.	.
4F\ 4A	.	.	8f\	.	.	.	.
.	.	.	8g\J	.	.	.	.
=109	=109	=109	=109	=109	=109	=109	=109
!	!	!	!	!LO:HP:b:t=poco cresc.	!	!	!
4F\ 4A	.	2cc/]	8.a\L	<	2cc\]	.	.
.	.	.	16a\Jk	.	.	.	.
4F\ 4A	.	.	4g\	.	.	.	.
4F\ 4A	.	4cc/	4f\	.	8cc\	To	.
.	.	.	.	.	8dd\	ten	.
*	*	*v	*v	*	*	*	*
!!LO:LB:g=original	!	!	!	!	!	!
=110	=110	=110	=110	=110	=110	=110
!	!	!	!	!	!	!LO:HP:a
4C\ 4G	.	4e-/ 4cc	.	8ee-\	po-	<
.	.	.	.	8dd\	-wrót	.
4C\ 4G	.	4e-/ 4cc	.	4cc\	piosn-	.
4C\ 4G	.	4e-/ 4cc	.	4ee-\	-ki	[[
=111	=111	=111	=111	=111	=111	=111
!	!	!	!	!LO:TX:a:i:t=molto espress.	!	!
4BBn\ 4G	.	4d/ 4g	.	4.gg\	sta-	.
4BB\ 4G	.	4d/ 4g	.	.	.	.
.	.	.	.	8gg\	-rej	.
4BB\ 4G	.	4c/ 4g	.	8ff\	Mo-	.
.	.	.	.	8ee-\	-że	.
=112	=112	=112	=112	=112	=112	=112
*	*	*^	*	*	*	*
!	!	!	!	!	!	!	!LO:HP:a
4D\ 4G	.	[2.g/	4.B-\	.	[2.dd\	wró-	<[
4D\ 4G	.	.	.	.	.	.	.
!	!	!	!	!LO:HP:b	!	!	!
.	.	.	8A\	<	.	.	.
4D\ 4G	.	.	8B-\L	.	.	.	.
.	.	.	8c\J	[[	.	.	.
=113	=113	=113	=113	=113	=113	=113	=113
!	!	!	!	!	!	!	!LO:HP:a
!	!	!	!	!LO:HP:b	!	!	!
4D\ 4G	.	8g/L]	4d\	>	2dd\]	.	>
.	.	8a/J	.	.	.	.	.
4D\ 4G	.	4b-/	4d\	]	.	.	.
!	!	!	!	!	!	!	!LO:DY:a
!	!	!	!	!LO:DY:b	!	!	!
4D\ 4c	.	[4f#X/	[4e-\	p	8e-/	-żyć	] p
.	.	.	.	.	8b-\	noc	.
=114	=114	=114	=114	=114	=114	=114	=114
4G\ 4c	.	4f#/]	4e-\]	.	4a/	blis-	.
!	!	!	!	!LO:DY:b	!	!	!
4G\ 4B-	.	2g/	[2d\	p	[2g/	-ką.	.
4G\ 4B-	.	.	.	.	.	.	.
=115	=115	=115	=115	=115	=115	=115	=115
4G\ 4A	.	(2.a/	8d\L]	<	4g/]	.	.
.	.	.	8c#X\J	.	.	.	.
4G\ 4A	.	.	4en\	.	4r	.	.
4G\ 4A	.	.	8A\L	.	4r	.	.
.	.	.	8c#\J	[[	.	.	.
*	*	*v	*v	*	*	*	*
=116	=116	=116	=116	=116	=116	=116
!	!	!	!LO:HP:b	!	!	!
!	!	!LO:TX:t=P:problem: 2.d zapisane unisono z 2d	!	!	!	!
4G\ 4B-	.	N[2d/) 2.d	>	2.r	.	.
4G\ 4B-	.	.	.	.	.	.
4G\ 4B-	.	4g/	]	.	.	.
=117	=117	=117	=117	=117	=117	=117
*	*	*^	*	*	*	*
!	!	!	!	!LO:DY:a	!	!	!
!	!	!	!	!LO:HP:a	!	!	!
4G\ 4A	.	(2.a/	(8d\LN]	pp <	2.r	.	.
.	.	.	8c#X\J	.	.	.	.
4G\ 4A	.	.	4en\	.	.	.	.
4G\ 4A	.	.	8A\L	.	.	.	.
.	.	.	8c#\J	.	.	.	.
*	*	*v	*v	*	*	*	*
=118	=118	=118	=118	=118	=118	=118
!	!	!	!LO:HP:a	!	!	!
4G\	.	[2.B-/)) [2.d	[ > ]]	2.r	.	.
4GG/ 4D	.	.	.	.	.	.
4GG/ 4D	.	.	.	.	.	.
=119	=119	=119	=119	=119	=119	=119
[2.GG/ [2.D	.	4B-/] 4d]	.	2.r	.	.
.	.	(4dd\	.	.	.	.
!	!	!LO:TX:a:i:t=dolce	!	!	!	!
.	.	8a\L	.	.	.	.
.	.	8cc\J	.	.	.	.
=120	=120	=120	=120	=120	=120	=120
!	!	!	!LO:HP:b	!	!	!
4GG/] 4D]	.	8b-/L	<	2.r	.	.
.	.	8g/J	.	.	.	.
4r	.	4a/	.	.	.	.
4r	.	8g/L	.	.	.	.
.	.	8e-/J	[[	.	.	.
=121	=121	=121	=121	=121	=121	=121
4r	.	[2.d/)	.	2.r	.	.
(8A\L	<	.	.	.	.	.
8c\	.	.	.	.	.	.
8B-\	.	.	.	.	.	.
8G\J	[[	.	.	.	.	.
=122	=122	=122	=122	=122	=122	=122
*	*	*^	*	*	*	*
!	!	!	!	!LO:HP:b	!	!	!
4A\)	.	(2.d/]	4.d\	>	2.r	.	.
4D\	.	.	.	.	.	.	.
.	.	.	8c\	.	.	.	.
4D\	.	.	8B-\L	.	.	.	.
.	.	.	8A\J	.	.	.	.
*	*	*v	*v	*	*	*	*
=123	=123	=123	=123	=123	=123	=123
!	!	!	!LO:DY:b	!	!	!
2.GG/ 2.D	.	2.B-/) 2.g	] pp	2.r	.	.
==	==	==	==	==	==	==
*-	*-	*-	*-	*-	*-	*-
!!!system-decoration: s1{(s2,s3)}
!!!RDF**kern: > = above
!!!RDF**kern: < = below
!!!RDF**kern: N = linked
!!!ENC: Andrzej Gręziak
!!!END: 2022-03-17
!!!AIN: 2 piano 1 vox
!!!ENC: Natalia Wrzos
!!!END: 2022-03-20
